src/assets/tokens/tBTC.svg

<svg width="144" height="144" viewBox="0 0 144 144" fill="none" xmlns="http://www.w3.org/2000/svg">
<path d="M71.85 143.7C111.532 143.7 143.7 111.532 143.7 71.85C143.7 32.1683 111.532 0 71.85 0C32.1683 0 0 32.1683 0 71.85C0 111.532 32.1683 143.7 71.85 143.7Z" fill="#1D2229"/>
<path d="M59.5621 65.1122H47.531V77.1433H59.5621V65.1122Z" fill="white"/>
<path d="M47.5309 53.081H35.4997V65.1121L47.531 65.1122L47.5309 53.081Z" fill="white"/>
<path d="M35.4978 65.1122H23.4667V77.1433H35.4978V65.1122Z" fill="white"/>
<path d="M47.531 77.1433L35.4997 77.1427V89.1738H47.5309L47.531 77.1433Z" fill="white"/>
<path d="M115.922 55.6723C115.074 46.824 107.437 43.8538 97.791 43.0056V37.3377H90.3225V42.6822C88.3601 42.6822 86.3535 42.7198 84.3579 42.7575V37.3333H76.8938V42.9989C75.2769 43.0299 65.3433 43.0211 65.3433 43.0211L65.3211 49.6058L71.5538 49.6413V92.7977H65.3233L65.268 99.2895C67.0775 99.2895 75.1308 99.3249 76.8761 99.336V104.931H84.3401V99.4689C86.3867 99.5132 88.3712 99.5309 90.307 99.5287V104.933H97.7777V99.3626C110.338 98.6472 119.133 95.4866 120.225 83.6947C121.111 74.1974 116.646 69.9626 109.516 68.2394C113.849 66.0246 116.558 62.1463 115.926 55.6701L115.922 55.6723ZM105.457 82.2129C105.457 91.491 89.5739 90.4301 84.5063 90.4323V73.9847C89.5716 73.9847 105.448 72.5384 105.45 82.2129H105.457ZM101.99 59.0057C101.99 67.4465 88.7366 66.4565 84.5173 66.4565V51.5372C88.7433 51.5394 101.995 50.2016 101.99 59.0057Z" fill="white"/>
</svg>

<svg fill="none" height="144" width="144" xmlns="http://www.w3.org/2000/svg"><path d="m71.85 143.7c39.682 0 71.85-32.168 71.85-71.85s-32.168-71.85-71.85-71.85-71.85 32.168-71.85 71.85 32.168 71.85 71.85 71.85z" fill="#1d2229"/><path d="m59.562 65.112h-12.031v12.031h12.031v-12.03zm-12.031-12.031h-12.031v12.031h12.03v-12.031zm-12.033 12.031h-12.031v12.031h12.03v-12.03zm12.032 12.031h-12.03v12.03h12.03l.001-12.03zm68.391-21.47c-.848-8.849-8.485-11.82-18.131-12.667v-5.668h-7.468v5.344c-1.963 0-3.97.038-5.965.075v-5.424h-7.464v5.667c-1.617.03-11.55.022-11.55.022l-.023 6.585 6.233.035v43.157h-6.23l-.056 6.492c1.81 0 9.863.035 11.608.046v5.595h7.464v-5.462c2.047.044 4.031.062 5.967.06v5.404h7.47v-5.57c12.561-.716 21.356-3.876 22.448-15.668.886-9.498-3.579-13.732-10.709-15.456 4.333-2.214 7.042-6.093 6.41-12.569zm-10.465 26.54c0 9.278-15.883 8.217-20.95 8.22v-16.449c5.065 0 20.941-1.447 20.943 8.228h.007zm-3.467-23.207c0 8.44-13.253 7.45-17.473 7.45v-14.918c4.226.002 17.478-1.335 17.473 7.469z" fill="#fff"/></svg>
